shared/images/iconfont/10-kb-iconfont-boom-16.svg

<?xml version="1.0" encoding="UTF-8"?>
<svg width="16px" height="16px" viewBox="0 0 16 16" version="1.1" xmlns="http://www.w3.org/2000/svg" xmlns:xlink="http://www.w3.org/1999/xlink">
    <!-- Generator: sketchtool 54.1 (76490) - https://sketchapp.com -->
    <title>BDBC503F-A4DE-43E8-BC9F-53C4DB991921</title>
    <desc>Created with sketchtool.</desc>
    <g id="Symbols" stroke="none" stroke-width="1" fill="none" fill-rule="evenodd">
        <g id="10-kb-iconfont-boom-16">
            <g>
                <rect id="icon-area" opacity="0" x="0" y="0" width="16" height="16"></rect>
                <path d="M7.34590363,5.92499428 C7.69995349,5.17873604 8.36066953,4.5958879 9.24968502,4.56484279 C10.4688881,4.52226729 11.131218,5.25101237 11.1682402,6.31118891 C11.2126668,7.58340077 10.3779322,9.01015171 8.97319831,9.0592061 C8.20940212,9.08587845 7.6641601,8.80983308 7.35429827,8.33922524 C7.11545593,8.85521407 6.70501631,9.27753053 6.11205668,9.4701948 C4.9518189,9.8471789 4.1142771,9.32922705 3.78646484,8.32032464 C3.39309012,7.10964175 3.80222265,5.50807669 5.13901834,5.07372544 C6.178502,4.73597673 6.95896472,5.11657337 7.34590363,5.92499428 Z M14.5849175,10.065365 C14.2692561,10.0432918 14.0609628,9.75593027 14.1466098,9.43837027 L14.7630035,7.33716744 L13.193976,9.81584252 C13.1436029,9.90113746 13.0512445,9.95177602 12.9565461,9.94515407 C12.8239683,9.93588332 12.7165107,9.83955178 12.7149208,9.68083814 L12.6417588,7.18883556 L11.9666042,9.49528468 C11.9006471,9.71271595 11.693459,9.86317451 11.4598695,9.84684034 C11.1378949,9.82432568 10.9246128,9.51758302 11.01569,9.21309093 L11.9214736,6.14878895 C12.0210714,5.81317219 12.3422064,5.5755201 12.7083736,5.60112501 C13.106107,5.62893724 13.4068914,5.95448686 13.4178414,6.34224257 L13.4541368,8.00059028 L14.6385451,6.12308575 C14.7743891,5.90419735 15.0316416,5.76358374 15.3157369,5.78344961 C15.789229,5.81655941 16.0996823,6.27601121 15.972757,6.73025492 L15.0916522,9.71380932 C15.0256951,9.9312406 14.818507,10.0816992 14.5849175,10.065365 Z M9.87014097,6.37421069 C9.85348099,5.89713125 9.61606312,5.68428261 9.22733172,5.6978574 C8.64423462,5.7182196 8.3329972,6.68441071 8.35274236,7.2498382 C8.36940234,7.72691764 8.60682022,7.93976629 8.99555162,7.92619149 C9.57864872,7.90582929 9.88988613,6.93963818 9.87014097,6.37421069 Z M6.23416826,6.64198066 C6.08665274,6.18797457 5.799763,6.04881256 5.42983212,6.16901039 C4.87493579,6.34930714 4.84207355,7.36385829 5.01690675,7.90193958 C5.16442227,8.35594566 5.45131202,8.49510767 5.8212429,8.37490984 C6.37613923,8.1946131 6.40900147,7.18006194 6.23416826,6.64198066 Z M1.20521263,11.1823707 C0.809110504,11.3265401 0.537761216,11.1561579 0.475215081,10.7378236 L0.00960207668,7.19906881 C-0.040323176,6.83595095 0.104259012,6.59642089 0.447547519,6.47147409 L1.70847261,6.01253488 C2.49407516,5.72659894 3.06138449,6.07335834 3.25841598,6.6146979 C3.46505876,7.18244428 3.25098867,7.88836511 2.7246728,8.14721474 C3.15922009,8.10867259 3.48522754,8.40868604 3.61978564,8.77838135 C3.845651,9.39894135 3.70725771,10.2717008 2.703799,10.6369299 L1.20521263,11.1823707 Z M2.19500791,7.22603453 C2.1205204,7.02138177 1.94462878,6.92839966 1.72017091,7.01009564 L1.13261942,7.2239469 L1.25533311,8.13624381 L1.92210502,7.89355868 C2.23898672,7.77822317 2.27910672,7.4570941 2.19500791,7.22603453 Z M2.5190732,9.08181656 C2.44218286,8.87056209 2.26388842,8.77097829 2.03282884,8.85507709 L1.37926034,9.09295657 L1.51039604,10.0694744 L2.20357475,9.81717803 C2.51385475,9.70424535 2.62720024,9.37889315 2.5190732,9.08181656 Z M4.65213469,1.85425786 L3.11691563,3.878825 C2.9500644,4.09885972 2.63643137,4.14197347 2.41639665,3.97512225 C2.19636192,3.80827102 2.15324818,3.49463799 2.3200994,3.27460327 L4.14863439,0.863226315 C4.31201107,0.647773643 4.61707049,0.601238011 4.83725453,0.758179983 L6.98575928,2.28958336 L10.7053105,0.0706567674 C10.9331213,-0.0652455177 11.2274125,0.000411954532 11.3758546,0.22025769 L13.4532471,3.29691785 C13.6077744,3.52577577 13.5475174,3.83657084 13.3186595,3.99109806 C13.0898016,4.14562528 12.7790065,4.08536834 12.6244793,3.85651042 L10.8116348,1.17165123 L7.21763082,3.31568166 C7.04722734,3.41733715 6.83283629,3.40861039 6.67125862,3.29344164 L4.65213469,1.85425786 Z M3.2302377,15.4307082 C2.89739247,15.6428841 2.46147064,15.4038081 2.46147064,15.0090872 L2.46147064,13.421929 C2.46147064,13.1457866 2.68532827,12.921929 2.96147064,12.921929 C3.23761302,12.921929 3.46147064,13.1457866 3.46147064,13.421929 L3.46147064,14.0974069 L5.88815559,12.5504892 C6.06962429,12.43481 6.30475433,12.4482225 6.47189132,12.5837873 L9.24643703,14.8342206 L11.6962864,12.2586873 C11.859881,12.0866998 12.1218501,12.0534376 12.3232352,12.1790834 L14.6555455,13.6342313 C14.8898286,13.7804025 14.9612575,14.0888217 14.8150863,14.3231049 C14.6689151,14.557388 14.3604959,14.6288168 14.1262127,14.4826456 L12.1398345,13.2433276 L9.6525756,15.8581897 C9.47279257,16.0471961 9.17791652,16.0662317 8.97532451,15.9019093 L6.12182271,13.5874347 L3.2302377,15.4307082 Z" id="Combined-Shape" fill="#000000"></path>
            </g>
        </g>
    </g>
</svg>

<svg xmlns="http://www.w3.org/2000/svg" width="16" height="16" viewBox="0 0 16 16">
    <path fill="#000" fill-rule="evenodd" d="M7.346 5.925c.354-.746 1.015-1.33 1.904-1.36 1.219-.043 1.881.686 1.918 1.746.045 1.272-.79 2.7-2.195 2.748-.764.027-1.309-.25-1.619-.72-.239.516-.649.939-1.242 1.131-1.16.377-1.998-.14-2.326-1.15-.393-1.21.016-2.812 1.353-3.246 1.04-.338 1.82.043 2.207.851zm7.239 4.14a.485.485 0 0 1-.438-.627l.616-2.1-1.569 2.478a.258.258 0 0 1-.237.13.253.253 0 0 1-.242-.265l-.073-2.492-.675 2.306a.495.495 0 0 1-.507.352.493.493 0 0 1-.444-.634l.905-3.064a.763.763 0 0 1 1.496.193l.037 1.659 1.185-1.878a.741.741 0 0 1 1.334.607l-.881 2.984a.495.495 0 0 1-.507.351zM9.87 6.375c-.017-.478-.254-.69-.643-.677-.583.02-.894.986-.874 1.552.016.477.254.69.643.676.583-.02.894-.986.874-1.552zm-3.636.267c-.147-.454-.434-.593-.804-.473-.555.18-.588 1.195-.413 1.733.147.454.434.593.804.473.555-.18.588-1.195.413-1.733zm-5.029 4.54c-.396.145-.667-.026-.73-.444L.01 7.199c-.05-.363.094-.603.438-.728l1.26-.458c.786-.286 1.353.06 1.55.602.207.567-.007 1.273-.533 1.532.434-.038.76.262.895.631.226.62.087 1.494-.916 1.859l-1.499.545zm.99-3.956c-.074-.205-.25-.298-.475-.216l-.587.214.122.912.667-.242c.317-.116.357-.437.273-.668zm.324 1.856c-.077-.211-.255-.311-.486-.227l-.654.238.131.976.694-.252c.31-.113.423-.438.315-.735zm2.133-7.228L3.117 3.88a.5.5 0 0 1-.797-.604L4.15.863a.5.5 0 0 1 .688-.105L6.986 2.29l3.72-2.22a.5.5 0 0 1 .67.15l2.077 3.077a.5.5 0 1 1-.829.56l-1.812-2.685-3.594 2.144a.5.5 0 0 1-.547-.023L4.652 1.854zM3.23 15.431a.5.5 0 0 1-.769-.422v-1.587a.5.5 0 1 1 1 0v.675l2.427-1.547a.5.5 0 0 1 .584.034l2.774 2.25 2.45-2.575a.5.5 0 0 1 .627-.08l2.333 1.455a.5.5 0 0 1-.53.849l-1.986-1.24-2.487 2.615a.5.5 0 0 1-.678.044l-2.853-2.315-2.892 1.844z"/>
</svg>
